X: 1
T: Monday Morning, The
M: 4/4
L: 1/8
R: reel
K: Dmin
e2 g|: fedc AGFD|B,CDF EF D/D/D|ECEG c2 ef|egce dceg|
 fedc AGFD|B,CDF EF D/D/D|ECEG c2 ef|1 egce d3 f:|2 egce d4 ||
|: affe fedc|Adea Adea|geed edcd|egce dcea|
affe fedc|Adea Adea|bagf efgf|1 egce d3 a:|2 egce d4 ||
